X: 051
M: C
L: 1/8
K: Bb
V: 1
|: !Segno!B>dfd e/d/c/B/ AF | B>dfd b>g {e}dc/B/ | e<gc>B A/B/c/B/ AF | c<eG<c AF B2 :|
|: F>EDB Cc (B/A/G/F/) | GEce A<cF<B | e<gd<f | c<e {B}AG/F/ | G<E (c/d/e) AF !Segno!B2 :|
V: 2 clef=bass middle=d
z \
|: !Segno!B2b2 B2f2 | B2b2 B2b2 | c2e=e f2F2 | e2E2 F2B2 :|
|: B2b2 a2f2 | e2a2 f2F2 | e2B2  A2f2 | e2f2 F2!Segno!B2 :|


